X: 121676
T: Little Bag of Meal
T: Humors of Mullinafauna
S: "Roche Collection of Traditional Irish Music" [I/38/85]
N: Related to "Banish Misfortune"
L: 1/8
M: 6/8
R: jig
K: D
d/e/ | fed cAG | A2d cAG | F2D GED | DED DFA |
=c3 cAG | ABA Ade | fed cAG | Add d2 :|
e | f2d dfd | f2a agf | e2=c cdc | e2g gfe |
f2a agf |1 gfg efg | afd cAG | Add d2 :|2\
gfg bag | fed cAG | Add d2 ||
